img/logo-set.svg

<?xml version="1.0" encoding="utf-8"?>
<svg width="256px" height="270px" viewBox="-1 0 257 256" xmlns="http://www.w3.org/2000/svg" xmlns:bx="https://boxy-svg.com">
  <g id="logo1">
    <path style="fill: rgb(83, 130, 161); stroke-width: 0.676;" d="M 104.718 196.835 C 104.718 196.835 95.284 202.479 111.435 204.389 C 130.999 206.685 140.998 206.356 162.56 202.159 C 162.56 202.159 168.229 205.815 176.145 208.981 C 127.812 230.288 66.755 207.747 104.718 196.835"/>
    <path style="fill: rgb(83, 130, 161); stroke-width: 0.676;" d="M 98.813 169.032 C 98.813 169.032 88.229 177.089 104.393 178.808 C 125.292 181.026 141.798 181.207 170.359 175.551 C 170.359 175.551 174.31 179.67 180.522 181.923 C 122.08 199.499 56.991 183.309 98.813 169.032"/>
    <path style="fill: rgb(231, 111, 0); stroke-width: 0.676;" d="M 148.604 121.867 C 160.513 135.97 145.474 148.662 145.474 148.662 C 145.474 148.662 175.715 132.605 161.826 112.498 C 148.857 93.747 138.909 84.43 192.758 52.308 C 192.759 52.307 108.233 74.021 148.604 121.867"/>
    <path style="fill: rgb(83, 130, 161); stroke-width: 0.676;" d="M 212.53 217.401 C 212.53 217.401 219.513 223.32 204.842 227.896 C 176.941 236.59 88.72 239.215 64.213 228.244 C 55.404 224.301 71.924 218.83 77.121 217.683 C 82.54 216.474 85.637 216.699 85.637 216.699 C 75.84 209.601 22.312 230.637 58.447 236.663 C 156.996 253.101 238.094 229.261 212.53 217.401"/>
    <path style="fill: rgb(83, 130, 161); stroke-width: 0.676;" d="M 109.256 140.224 C 109.256 140.224 64.381 151.187 93.366 155.167 C 105.604 156.853 129.999 156.471 152.72 154.513 C 171.292 152.902 189.94 149.476 189.94 149.476 C 189.94 149.476 183.392 152.361 178.655 155.687 C 133.085 168.015 45.054 162.28 70.397 149.67 C 91.83 139.015 109.256 140.224 109.256 140.224"/>
    <path style="fill: rgb(83, 130, 161); stroke-width: 0.676;" d="M 189.756 186.505 C 236.079 161.746 214.662 137.952 199.713 141.159 C 196.048 141.943 194.414 142.623 194.414 142.623 C 194.414 142.623 195.775 140.431 198.371 139.482 C 227.946 128.788 250.691 171.024 188.824 187.753 C 188.824 187.753 189.542 187.095 189.756 186.505"/>
    <path style="fill: rgb(231, 111, 0); stroke-width: 0.676;" d="M 161.826 0.438 C 161.826 0.438 187.481 26.833 137.496 67.424 C 97.41 99.983 128.354 118.547 137.478 139.759 C 114.081 118.045 96.911 98.931 108.429 81.142 C 125.337 55.027 172.179 42.366 161.826 0.438"/>
    <path style="fill: rgb(83, 130, 161); stroke-width: 0.676;" d="M 113.807 253.595 C 158.273 256.523 226.553 251.971 228.17 230.332 C 228.17 230.332 225.063 238.534 191.423 245.05 C 153.471 252.395 106.663 251.539 78.9 246.831 C 78.901 246.829 84.585 251.668 113.807 253.595"/>
  </g>
  <g id="logo2">
    <path d="M0,0 L256,0 L256,256 L0,256 L0,0 Z" style="fill: rgb(247, 223, 30);"/>
    <path d="M67.311746,213.932292 L86.902654,202.076241 C90.6821079,208.777346 94.1202286,214.447137 102.367086,214.447137 C110.272203,214.447137 115.256076,211.354819 115.256076,199.326883 L115.256076,117.528787 L139.313575,117.528787 L139.313575,199.666997 C139.313575,224.58433 124.707759,235.925943 103.3984,235.925943 C84.1532952,235.925943 72.9819429,225.958603 67.3113397,213.93026" style="fill: rgb(0, 0, 0);"/>
    <path d="M152.380952,211.354413 L171.969422,200.0128 C177.125994,208.433981 183.827911,214.619835 195.684368,214.619835 C205.652521,214.619835 212.009041,209.635962 212.009041,202.762159 C212.009041,194.513676 205.479416,191.592025 194.481168,186.78207 L188.468419,184.202565 C171.111213,176.81473 159.597308,167.53534 159.597308,147.944838 C159.597308,129.901308 173.344508,116.153295 194.825752,116.153295 C210.119924,116.153295 221.117765,121.48094 229.021663,135.400432 L210.29059,147.428775 C206.166146,140.040127 201.699556,137.119289 194.826159,137.119289 C187.78047,137.119289 183.312254,141.587098 183.312254,147.428775 C183.312254,154.646349 187.78047,157.568406 198.089956,162.036622 L204.103924,164.614095 C224.553448,173.378641 236.067352,182.313448 236.067352,202.418387 C236.067352,224.071924 219.055137,235.927975 196.200432,235.927975 C173.860978,235.927975 159.425829,225.274311 152.381359,211.354413" style="fill: rgb(0, 0, 0);"/>
  </g>
  <g id="logo3">
    <path style="fill: rgb(153, 153, 153); stroke-width: 0.302;" d="M 183.98 17.824 C 196.885 1.898 214.829 1.82 214.829 1.82 C 214.829 1.82 217.497 16.794 204.678 31.219 C 190.985 46.62 175.423 44.1 175.423 44.1 C 175.423 44.1 172.503 31.988 183.98 17.824 Z" bx:origin="0.5 0.5"/>
    <path style="fill: rgb(153, 153, 153); stroke-width: 0.302;" d="M 177.065 54.589 C 183.705 54.589 196.029 46.044 212.07 46.044 C 239.68 46.044 250.543 64.438 250.543 64.438 C 250.543 64.438 229.298 74.608 229.298 99.282 C 229.298 127.117 255.763 136.709 255.763 136.709 C 255.763 136.709 237.263 185.459 212.276 185.459 C 200.798 185.459 191.875 178.219 179.782 178.219 C 167.458 178.219 155.23 185.729 147.265 185.729 C 124.447 185.73 95.62 139.486 95.62 102.314 C 95.62 65.742 120.02 46.557 142.906 46.557 C 157.784 46.557 169.331 54.589 177.065 54.589 Z" bx:origin="0.5 0.5"/>
    <path id="c-4-14-6-4-9" style="fill:#A4C639;" d="M 57.752 184.71 L 57.752 184.71 C 64.195 184.71 69.418 189.757 69.418 195.981 L 69.418 244.331 C 69.418 250.555 64.195 255.601 57.752 255.601 L 57.752 255.601 C 51.31 255.601 46.087 250.555 46.087 244.331 L 46.087 195.981 C 46.087 189.757 51.31 184.71 57.752 184.71 Z" bx:origin="0.5 0.5"/>
    <path id="rect8719-3-2-7-4-3" style="fill:#A4C639;" d="M 31.12 126.581 C 31.081 127.008 31.048 127.44 31.048 127.877 L 31.048 201.131 C 31.048 209.009 37.502 215.355 45.514 215.355 L 122.618 215.355 C 130.63 215.355 137.085 209.009 137.085 201.131 L 137.085 127.877 C 137.085 127.44 137.069 127.007 137.031 126.581 L 31.12 126.581 L 31.12 126.581 Z" bx:origin="0.5 0.5"/>
    <path id="c-4-8-9-1-4-9" style="fill:#A4C639;" d="M 110.382 184.71 L 110.382 184.71 C 116.824 184.71 122.048 189.757 122.048 195.981 L 122.048 244.331 C 122.048 250.555 116.824 255.601 110.382 255.601 L 110.382 255.601 C 103.94 255.601 98.717 250.555 98.717 244.331 L 98.717 195.981 C 98.717 189.757 103.94 184.71 110.382 184.71 Z" bx:origin="0.5 0.5"/>
    <path id="c-4-9-2-9-2-9" style="fill:#A4C639;" d="M 12.305 133.1 L 12.305 133.1 C 18.746 133.1 23.97 138.147 23.97 144.371 L 23.97 192.721 C 23.97 198.945 18.746 203.992 12.305 203.992 L 12.305 203.992 C 5.862 203.992 0.639 198.945 0.639 192.721 L 0.639 144.371 C 0.638 138.147 5.861 133.1 12.305 133.1 Z" bx:origin="0.5 0.5"/>
    <path id="c-4-1-7-3-8-4" style="fill:#A4C639;" d="M 155.83 133.1 L 155.83 133.1 C 162.272 133.1 167.495 138.147 167.495 144.371 L 167.495 192.721 C 167.495 198.945 162.272 203.992 155.83 203.992 L 155.83 203.992 C 149.387 203.992 144.164 198.945 144.164 192.721 L 144.164 144.371 C 144.164 138.147 149.387 133.1 155.83 133.1 Z" bx:origin="0.5 0.5"/>
    <path id="path4090-4-4-4-8" style="fill:#A4C639;" d="M 31.461 121.769 C 31.785 99.269 52.112 80.819 78.204 78.388 L 89.928 78.388 C 116.021 80.82 136.347 99.27 136.671 121.769 L 31.461 121.769 Z" bx:origin="0.5 0.5"/>
    <path id="path4160-1-3-5-6" style="fill:none;stroke:#A4C639;stroke-width:3;stroke-linecap:round;stroke-linejoin:round;" d="M 35.518 76.216 L 47.824 96.81" bx:origin="0.5 0.5"/>
    <path id="path4160-9-0-1-7-9" style="fill:none;stroke:#A4C639;stroke-width:3;stroke-linecap:round;stroke-linejoin:round;" d="M 132.616 76.216 L 120.31 96.81" bx:origin="0.5 0.5"/>
    <path id="path4109-7-3-2-5-7-2-0" style="fill:#FFFFFF;" d="M 68.395 101.604 C 68.405 104.749 65.711 107.306 62.377 107.315 C 59.045 107.324 56.335 104.781 56.325 101.636 C 56.325 101.625 56.325 101.615 56.325 101.604 C 56.316 98.458 59.01 95.902 62.343 95.893 C 65.676 95.884 68.385 98.427 68.395 101.573 C 68.395 101.583 68.395 101.594 68.395 101.604 Z" bx:origin="0.5 0.5"/>
    <path id="path4109-0-0-3-1-5-0-0-0" style="fill:#FFFFFF;" d="M 113.446 101.604 C 113.456 104.749 110.762 107.306 107.428 107.315 C 104.096 107.324 101.386 104.781 101.376 101.636 C 101.376 101.625 101.376 101.615 101.376 101.604 C 101.367 98.458 104.061 95.902 107.394 95.893 C 110.726 95.884 113.436 98.427 113.446 101.573 C 113.446 101.583 113.446 101.594 113.446 101.604 Z" bx:origin="0.5 0.5"/>
  </g>
</svg>

<svg width="256" height="270" viewBox="-1 0 257 256" xmlns="http://www.w3.org/2000/svg" xmlns:bx="https://boxy-svg.com"><path d="M104.718 196.835s-9.434 5.644 6.717 7.554c19.564 2.296 29.563 1.967 51.125-2.23 0 0 5.669 3.656 13.585 6.822-48.333 21.307-109.39-1.234-71.427-12.146m-5.905-27.803s-10.584 8.057 5.58 9.776c20.899 2.218 37.405 2.399 65.966-3.257 0 0 3.951 4.119 10.163 6.372-58.442 17.576-123.531 1.386-81.709-12.891" fill="#5382a1"/><path d="M148.604 121.867c11.909 14.103-3.13 26.795-3.13 26.795s30.241-16.057 16.352-36.164c-12.969-18.751-22.917-28.068 30.932-60.19.001-.001-84.525 21.713-44.154 69.559" fill="#e76f00"/><path d="M212.53 217.401s6.983 5.919-7.688 10.495c-27.901 8.694-116.122 11.319-140.629.348-8.809-3.943 7.711-9.414 12.908-10.561 5.419-1.209 8.516-.984 8.516-.984-9.797-7.098-63.325 13.938-27.19 19.964 98.549 16.438 179.647-7.402 154.083-19.262m-103.274-77.177s-44.875 10.963-15.89 14.943c12.238 1.686 36.633 1.304 59.354-.654 18.572-1.611 37.22-5.037 37.22-5.037s-6.548 2.885-11.285 6.211c-45.57 12.328-133.601 6.593-108.258-6.017 21.433-10.655 38.859-9.446 38.859-9.446m80.5 46.281c46.323-24.759 24.906-48.553 9.957-45.346-3.665.784-5.299 1.464-5.299 1.464s1.361-2.192 3.957-3.141c29.575-10.694 52.32 31.542-9.547 48.271 0 0 .718-.658.932-1.248" fill="#5382a1"/><path d="M161.826.438s25.655 26.395-24.33 66.986c-40.086 32.559-9.142 51.123-.018 72.335-23.397-21.714-40.567-40.828-29.049-58.617 16.908-26.115 63.75-38.776 53.397-80.704" fill="#e76f00"/><path d="M113.807 253.595c44.466 2.928 112.746-1.624 114.363-23.263 0 0-3.107 8.202-36.747 14.718-37.952 7.345-84.76 6.489-112.523 1.781.001-.002 5.685 4.837 34.907 6.764" fill="#5382a1"/><path d="M0 0h256v256H0V0z" fill="#f7df1e"/><path d="M67.312 213.932l19.59-11.856c3.78 6.701 7.218 12.371 15.465 12.371 7.905 0 12.89-3.092 12.89-15.12v-81.798h24.057v82.138c0 24.917-14.606 36.259-35.916 36.259-19.245 0-30.416-9.967-36.087-21.996m85.07-2.576l19.588-11.341c5.157 8.421 11.859 14.607 23.715 14.607 9.969 0 16.325-4.984 16.325-11.858 0-8.248-6.53-11.17-17.528-15.98l-6.013-2.58c-17.357-7.387-28.87-16.667-28.87-36.257 0-18.044 13.747-31.792 35.228-31.792 15.294 0 26.292 5.328 34.196 19.247l-18.732 12.03c-4.125-7.389-8.591-10.31-15.465-10.31-7.046 0-11.514 4.468-11.514 10.31 0 7.217 4.468 10.14 14.778 14.608l6.014 2.577c20.45 8.765 31.963 17.7 31.963 37.804 0 21.654-17.012 33.51-39.867 33.51-22.339 0-36.774-10.654-43.819-24.574"/><path d="M183.98 17.824C196.885 1.898 214.829 1.82 214.829 1.82s2.668 14.974-10.151 29.399C190.985 46.62 175.423 44.1 175.423 44.1s-2.92-12.112 8.557-26.276zm-6.915 36.765c6.64 0 18.964-8.545 35.005-8.545 27.61 0 38.473 18.394 38.473 18.394s-21.245 10.17-21.245 34.844c0 27.835 26.465 37.427 26.465 37.427s-18.5 48.75-43.487 48.75c-11.478 0-20.401-7.24-32.494-7.24-12.324 0-24.552 7.51-32.517 7.51-22.818.001-51.645-46.243-51.645-83.415 0-36.572 24.4-55.757 47.286-55.757 14.878 0 26.425 8.032 34.159 8.032z" bx:origin="0.5 0.5" fill="#999"/><path d="M57.752 184.71c6.443 0 11.666 5.047 11.666 11.271v48.35c0 6.224-5.223 11.27-11.666 11.27-6.442 0-11.665-5.046-11.665-11.27v-48.35c0-6.224 5.223-11.271 11.665-11.271z" bx:origin="0.5 0.5" fill="#a4c639"/><path d="M31.12 126.581c-.039.427-.072.859-.072 1.296v73.254c0 7.878 6.454 14.224 14.466 14.224h77.104c8.012 0 14.467-6.346 14.467-14.224v-73.254c0-.437-.016-.87-.054-1.296H31.12z" bx:origin="0.5 0.5" fill="#a4c639"/><path d="M110.382 184.71c6.442 0 11.666 5.047 11.666 11.271v48.35c0 6.224-5.224 11.27-11.666 11.27s-11.665-5.046-11.665-11.27v-48.35c0-6.224 5.223-11.271 11.665-11.271zM12.305 133.1c6.441 0 11.665 5.047 11.665 11.271v48.35c0 6.224-5.224 11.271-11.665 11.271-6.443 0-11.666-5.047-11.666-11.271v-48.35C.638 138.147 5.861 133.1 12.305 133.1zm143.525 0c6.442 0 11.665 5.047 11.665 11.271v48.35c0 6.224-5.223 11.271-11.665 11.271-6.443 0-11.666-5.047-11.666-11.271v-48.35c0-6.224 5.223-11.271 11.666-11.271zM31.461 121.769c.324-22.5 20.651-40.95 46.743-43.381h11.724c26.093 2.432 46.419 20.882 46.743 43.381H31.461z" bx:origin="0.5 0.5" fill="#a4c639"/><path d="M35.518 76.216L47.824 96.81m84.792-20.594L120.31 96.81" bx:origin="0.5 0.5" fill="none" stroke="#a4c639" stroke-width="3" stroke-linecap="round" stroke-linejoin="round"/><path d="M68.395 101.604c.01 3.145-2.684 5.702-6.018 5.711-3.332.009-6.042-2.534-6.052-5.679v-.032c-.009-3.146 2.685-5.702 6.018-5.711 3.333-.009 6.042 2.534 6.052 5.68v.031zm45.051 0c.01 3.145-2.684 5.702-6.018 5.711-3.332.009-6.042-2.534-6.052-5.679v-.032c-.009-3.146 2.685-5.702 6.018-5.711 3.332-.009 6.042 2.534 6.052 5.68v.031z" bx:origin="0.5 0.5" fill="#fff"/></svg>
